flaticon/medical/fit.svg

<svg xmlns="http://www.w3.org/2000/svg" width="32" height="32" viewBox="0 0 24 24">
    <path d="M10 8.796875C10.707031 8.796875 11.417969 8.570312 12 8.125 12.582031 8.570312 13.292969 8.796875 14 8.796875 14.824219 8.796875 15.648438 8.492188 16.277344 7.886719 16.4375 7.734375 16.441406 7.480469 16.289062 7.324219 16.132812 7.164062 15.878906 7.160156 15.722656 7.3125 14.773438 8.230469 13.226562 8.230469 12.277344 7.3125 12.257812 7.292969 12.234375 7.285156 12.214844 7.273438 12.191406 7.257812 12.171875 7.242188 12.152344 7.230469 12.125 7.222656 12.097656 7.21875 12.070312 7.214844 12.046875 7.210938 12.023438 7.203125 12 7.203125 11.976562 7.203125 11.953125 7.210938 11.929688 7.214844 11.902344 7.21875 11.875 7.222656 11.847656 7.230469 11.828125 7.242188 11.808594 7.257812 11.785156 7.273438 11.765625 7.285156 11.742188 7.292969 11.722656 7.3125 10.773438 8.230469 9.226562 8.230469 8.277344 7.3125 8.121094 7.160156 7.867188 7.164062 7.710938 7.324219 7.558594 7.480469 7.5625 7.734375 7.722656 7.886719 8.351562 8.492188 9.175781 8.796875 10 8.796875zM14.476562 11.363281C14.179688 11.773438 13.796875 12 13.398438 12 13.003906 12 12.621094 11.773438 12.324219 11.363281 12.3125 11.347656 12.292969 11.339844 12.277344 11.324219 12.265625 11.308594 12.253906 11.289062 12.234375 11.277344 12.230469 11.273438 12.222656 11.273438 12.21875 11.269531 12.195312 11.253906 12.171875 11.246094 12.144531 11.234375 12.121094 11.226562 12.101562 11.214844 12.078125 11.210938 12.050781 11.203125 12.023438 11.207031 12 11.207031 11.972656 11.207031 11.949219 11.207031 11.925781 11.210938 11.902344 11.214844 11.878906 11.226562 11.855469 11.234375 11.828125 11.246094 11.804688 11.253906 11.78125 11.269531 11.777344 11.273438 11.769531 11.273438 11.765625 11.277344 11.746094 11.289062 11.738281 11.308594 11.722656 11.324219 11.707031 11.339844 11.6875 11.347656 11.675781 11.363281 11.378906 11.773438 10.996094 12 10.601562 12 10.203125 12 9.820312 11.773438 9.523438 11.363281 9.394531 11.1875 9.144531 11.144531 8.964844 11.277344 8.785156 11.40625 8.746094 11.65625 8.875 11.835938 9.328125 12.457031 9.941406 12.800781 10.601562 12.800781 11.113281 12.800781 11.597656 12.589844 12 12.203125 12.402344 12.589844 12.886719 12.800781 13.398438 12.800781 14.058594 12.800781 14.671875 12.457031 15.125 11.835938 15.253906 11.65625 15.214844 11.40625 15.035156 11.277344 14.855469 11.148438 14.605469 11.1875 14.476562 11.363281zM14.476562 11.363281"/>
    <path d="M 24 12 C 24 9.164062 23.011719 6.558594 21.359375 4.503906 L 21.363281 4.492188 L 21.242188 4.347656 C 20 2.847656 18.441406 1.699219 16.703125 0.960938 C 16.6875 0.953125 16.667969 0.945312 16.652344 0.9375 C 16.511719 0.878906 16.367188 0.824219 16.222656 0.769531 C 16.167969 0.75 16.113281 0.726562 16.058594 0.707031 C 15.9375 0.664062 15.808594 0.621094 15.683594 0.582031 C 15.605469 0.554688 15.527344 0.53125 15.449219 0.507812 C 15.339844 0.472656 15.226562 0.441406 15.113281 0.410156 C 15.019531 0.386719 14.921875 0.363281 14.824219 0.339844 C 14.722656 0.3125 14.621094 0.289062 14.519531 0.269531 C 14.410156 0.242188 14.296875 0.222656 14.183594 0.203125 C 14.09375 0.1875 14 0.167969 13.910156 0.152344 C 13.78125 0.132812 13.65625 0.117188 13.53125 0.101562 C 13.445312 0.0898438 13.363281 0.078125 13.28125 0.0703125 C 13.140625 0.0546875 12.992188 0.0429688 12.847656 0.03125 C 12.78125 0.0273438 12.710938 0.0195312 12.644531 0.0195312 C 12.429688 0.0078125 12.214844 0 12 0 C 11.785156 0 11.570312 0.0078125 11.355469 0.0195312 C 11.289062 0.0195312 11.21875 0.0273438 11.152344 0.03125 C 11.007812 0.0429688 10.859375 0.0546875 10.71875 0.0703125 C 10.636719 0.078125 10.554688 0.0898438 10.46875 0.101562 C 10.34375 0.117188 10.21875 0.132812 10.089844 0.152344 C 10 0.167969 9.90625 0.1875 9.816406 0.203125 C 9.703125 0.222656 9.589844 0.242188 9.480469 0.269531 C 9.378906 0.289062 9.277344 0.3125 9.175781 0.339844 C 9.078125 0.363281 8.980469 0.386719 8.886719 0.410156 C 8.773438 0.441406 8.660156 0.472656 8.550781 0.507812 C 8.472656 0.53125 8.394531 0.554688 8.316406 0.582031 C 8.191406 0.621094 8.0625 0.664062 7.941406 0.707031 C 7.886719 0.726562 7.832031 0.75 7.777344 0.769531 C 7.632812 0.824219 7.488281 0.878906 7.347656 0.9375 C 7.332031 0.945312 7.316406 0.953125 7.296875 0.960938 C 5.558594 1.699219 4 2.847656 2.757812 4.347656 L 2.699219 4.425781 C 1.011719 6.492188 0 9.128906 0 12 C 0 15.144531 1.214844 18.007812 3.199219 20.148438 L 3.199219 20.15625 L 3.3125 20.273438 C 3.347656 20.308594 3.386719 20.34375 3.425781 20.382812 C 3.542969 20.503906 3.664062 20.621094 3.785156 20.738281 C 3.886719 20.832031 3.988281 20.921875 4.089844 21.011719 C 4.210938 21.117188 4.332031 21.222656 4.457031 21.324219 C 4.546875 21.398438 4.636719 21.46875 4.730469 21.539062 C 4.839844 21.625 4.953125 21.707031 5.066406 21.785156 C 5.207031 21.882812 5.34375 21.980469 5.488281 22.070312 C 5.609375 22.152344 5.734375 22.230469 5.859375 22.304688 C 5.960938 22.363281 6.0625 22.421875 6.164062 22.480469 C 6.292969 22.550781 6.417969 22.617188 6.546875 22.683594 C 6.652344 22.738281 6.753906 22.789062 6.859375 22.839844 C 7.042969 22.929688 7.230469 23.011719 7.421875 23.089844 C 7.507812 23.125 7.597656 23.160156 7.6875 23.195312 C 7.851562 23.257812 8.023438 23.320312 8.191406 23.375 C 8.257812 23.398438 8.324219 23.421875 8.390625 23.445312 C 8.625 23.519531 8.859375 23.585938 9.101562 23.644531 C 9.121094 23.648438 9.140625 23.65625 9.164062 23.660156 C 9.171875 23.664062 9.183594 23.664062 9.191406 23.664062 C 10.09375 23.882812 11.03125 24 12 24 C 12.96875 24 13.910156 23.882812 14.8125 23.664062 C 14.820312 23.664062 14.828125 23.664062 14.839844 23.660156 C 14.859375 23.65625 14.878906 23.648438 14.898438 23.644531 C 15.140625 23.585938 15.378906 23.519531 15.613281 23.445312 C 15.679688 23.421875 15.742188 23.398438 15.808594 23.375 C 15.980469 23.320312 16.148438 23.257812 16.316406 23.195312 C 16.40625 23.160156 16.492188 23.125 16.578125 23.089844 C 16.769531 23.011719 16.957031 22.929688 17.144531 22.839844 C 17.25 22.789062 17.355469 22.734375 17.460938 22.679688 C 17.585938 22.617188 17.710938 22.550781 17.832031 22.480469 C 17.9375 22.425781 18.042969 22.363281 18.144531 22.304688 C 18.265625 22.230469 18.386719 22.152344 18.503906 22.078125 C 18.652344 21.980469 18.800781 21.878906 18.945312 21.777344 C 19.050781 21.699219 19.160156 21.625 19.265625 21.542969 C 19.359375 21.46875 19.457031 21.394531 19.550781 21.320312 C 19.667969 21.222656 19.78125 21.125 19.894531 21.027344 C 20.011719 20.925781 20.121094 20.824219 20.234375 20.71875 C 20.347656 20.609375 20.460938 20.5 20.570312 20.390625 C 20.609375 20.347656 20.652344 20.3125 20.691406 20.269531 L 20.800781 20.152344 L 20.800781 20.144531 C 22.785156 18.003906 24 15.140625 24 12 Z M 19.933594 19.898438 C 19.867188 19.964844 19.796875 20.027344 19.730469 20.09375 C 19.578125 20.238281 19.421875 20.378906 19.257812 20.519531 C 19.203125 20.566406 19.144531 20.617188 19.085938 20.664062 C 18.988281 20.746094 18.890625 20.824219 18.789062 20.898438 C 18.730469 20.945312 18.671875 20.988281 18.617188 21.03125 C 18.511719 21.105469 18.40625 21.183594 18.296875 21.253906 C 18.246094 21.289062 18.195312 21.324219 18.144531 21.359375 C 17.777344 21.597656 17.398438 21.816406 17.007812 22.015625 C 16.9375 22.050781 16.867188 22.085938 16.792969 22.121094 C 16.691406 22.167969 16.585938 22.214844 16.480469 22.261719 C 16.394531 22.300781 16.304688 22.335938 16.21875 22.371094 C 16.121094 22.410156 16.023438 22.453125 15.925781 22.488281 C 15.8125 22.53125 15.699219 22.570312 15.585938 22.609375 C 15.523438 22.628906 15.460938 22.652344 15.398438 22.671875 C 16.777344 21.003906 18.410156 19.941406 20 19.679688 L 20 19.824219 C 19.976562 19.851562 19.957031 19.875 19.933594 19.898438 Z M 10.800781 15.601562 L 10.800781 14.800781 L 13.199219 14.800781 L 13.199219 15.601562 Z M 8.398438 17 C 8.398438 18.089844 8.039062 19.144531 7.382812 20.011719 C 6.347656 19.398438 5.191406 19.003906 4 18.867188 L 4 16.398438 L 8.363281 16.398438 C 8.386719 16.605469 8.398438 16.804688 8.398438 17 Z M 8.390625 22.601562 C 8.289062 22.566406 8.183594 22.527344 8.078125 22.488281 C 7.976562 22.453125 7.875 22.410156 7.773438 22.371094 C 7.691406 22.335938 7.609375 22.300781 7.523438 22.265625 C 7.417969 22.21875 7.308594 22.167969 7.203125 22.117188 C 7.136719 22.085938 7.066406 22.050781 7 22.019531 C 6.605469 21.820312 6.226562 21.601562 5.859375 21.359375 C 5.804688 21.324219 5.753906 21.292969 5.703125 21.253906 C 5.59375 21.183594 5.492188 21.109375 5.386719 21.03125 C 5.328125 20.988281 5.269531 20.941406 5.210938 20.898438 C 5.109375 20.824219 5.011719 20.746094 4.917969 20.667969 C 4.855469 20.617188 4.792969 20.5625 4.730469 20.511719 C 4.582031 20.382812 4.4375 20.253906 4.296875 20.121094 C 4.21875 20.046875 4.140625 19.972656 4.066406 19.894531 C 4.042969 19.875 4.023438 19.851562 4 19.828125 L 4 19.679688 C 6.058594 20.011719 7.691406 21.578125 8.597656 22.671875 C 8.53125 22.648438 8.460938 22.625 8.390625 22.601562 Z M 9.035156 15.601562 L 9.035156 15.597656 L 4 15.59375 L 4 14.800781 L 10 14.800781 L 10 15.601562 Z M 3.742188 6.199219 C 4.273438 6.578125 4.917969 6.800781 5.601562 6.800781 C 5.820312 6.800781 6 6.621094 6 6.398438 C 6 6.179688 5.820312 6 5.601562 6 C 4.726562 6 3.929688 5.53125 3.503906 4.769531 C 3.503906 4.753906 3.5 4.738281 3.496094 4.722656 C 4.5 3.550781 5.742188 2.585938 7.144531 1.90625 C 7.148438 1.90625 7.148438 1.90625 7.152344 1.90625 C 7.296875 1.835938 7.441406 1.769531 7.59375 1.707031 C 7.621094 1.691406 7.652344 1.679688 7.683594 1.664062 C 7.8125 1.613281 7.945312 1.558594 8.078125 1.511719 C 8.128906 1.492188 8.183594 1.472656 8.234375 1.453125 C 8.351562 1.410156 8.46875 1.371094 8.589844 1.332031 C 8.660156 1.308594 8.730469 1.289062 8.804688 1.269531 C 8.910156 1.234375 9.015625 1.207031 9.121094 1.175781 C 9.210938 1.152344 9.296875 1.132812 9.386719 1.113281 C 9.480469 1.089844 9.578125 1.066406 9.671875 1.046875 C 9.773438 1.023438 9.878906 1.003906 9.980469 0.988281 C 10.066406 0.972656 10.152344 0.953125 10.238281 0.941406 C 10.355469 0.921875 10.472656 0.90625 10.589844 0.890625 C 10.664062 0.882812 10.742188 0.871094 10.816406 0.863281 C 10.949219 0.847656 11.085938 0.839844 11.222656 0.832031 C 11.28125 0.828125 11.34375 0.820312 11.40625 0.816406 C 11.601562 0.804688 11.800781 0.800781 12 0.800781 C 12.199219 0.800781 12.398438 0.804688 12.59375 0.816406 C 12.65625 0.820312 12.71875 0.824219 12.78125 0.828125 C 12.914062 0.839844 13.050781 0.847656 13.183594 0.863281 C 13.261719 0.871094 13.335938 0.882812 13.410156 0.890625 C 13.527344 0.90625 13.648438 0.921875 13.761719 0.941406 C 13.847656 0.953125 13.933594 0.96875 14.019531 0.984375 C 14.121094 1.003906 14.226562 1.023438 14.328125 1.046875 C 14.425781 1.066406 14.519531 1.089844 14.617188 1.113281 C 14.703125 1.132812 14.792969 1.152344 14.878906 1.175781 C 14.984375 1.207031 15.09375 1.234375 15.199219 1.269531 C 15.269531 1.289062 15.339844 1.308594 15.410156 1.332031 C 15.53125 1.371094 15.648438 1.410156 15.765625 1.453125 C 15.816406 1.472656 15.871094 1.492188 15.921875 1.511719 C 16.054688 1.558594 16.1875 1.613281 16.316406 1.667969 C 16.347656 1.679688 16.378906 1.691406 16.40625 1.707031 C 16.558594 1.769531 16.703125 1.835938 16.851562 1.90625 C 16.851562 1.90625 16.851562 1.90625 16.855469 1.90625 C 18.257812 2.585938 19.496094 3.550781 20.503906 4.722656 C 20.5 4.738281 20.496094 4.753906 20.496094 4.769531 C 20.070312 5.53125 19.273438 6 18.398438 6 C 18.179688 6 18 6.179688 18 6.398438 C 18 6.621094 18.179688 6.800781 18.398438 6.800781 C 19.082031 6.800781 19.726562 6.578125 20.257812 6.199219 C 20.089844 7.402344 20 8.621094 20 9.832031 L 20 14 L 17.046875 14 L 17.957031 12.179688 C 18.054688 11.980469 17.976562 11.742188 17.777344 11.640625 C 17.582031 11.542969 17.339844 11.625 17.242188 11.820312 L 16.152344 14 L 7.847656 14 L 6.757812 11.820312 C 6.660156 11.625 6.417969 11.542969 6.222656 11.640625 C 6.023438 11.742188 5.941406 11.980469 6.042969 12.179688 L 6.953125 14 L 4 14 L 4 9.832031 C 4 8.621094 3.910156 7.40625 3.742188 6.199219 Z M 14 14.800781 L 20 14.800781 L 20 15.601562 L 14.964844 15.597656 L 14.964844 15.601562 L 14 15.601562 Z M 15.636719 16.398438 L 20 16.398438 L 20 18.867188 C 18.808594 19.007812 17.652344 19.398438 16.617188 20.011719 C 15.960938 19.144531 15.601562 18.089844 15.601562 17 C 15.601562 16.804688 15.613281 16.605469 15.636719 16.398438 Z M 20.800781 18.914062 L 20.800781 9.832031 C 20.800781 8.414062 20.925781 6.992188 21.167969 5.574219 C 22.445312 7.394531 23.199219 9.609375 23.199219 12 C 23.199219 14.609375 22.300781 17.007812 20.800781 18.914062 Z M 2.835938 5.574219 C 3.074219 6.980469 3.199219 8.410156 3.199219 9.832031 L 3.199219 18.917969 C 1.699219 17.011719 0.800781 14.609375 0.800781 12 C 0.800781 9.609375 1.554688 7.394531 2.835938 5.574219 Z M 9.808594 22.984375 C 9.792969 22.925781 9.765625 22.871094 9.730469 22.820312 C 9.144531 22.011719 8.5 21.316406 7.820312 20.738281 C 8.710938 19.6875 9.199219 18.367188 9.199219 17 C 9.199219 16.804688 9.1875 16.601562 9.164062 16.398438 L 11.601562 16.398438 L 11.601562 18.800781 C 11.601562 19.019531 11.777344 19.199219 12 19.199219 C 12.222656 19.199219 12.398438 19.019531 12.398438 18.800781 L 12.398438 16.398438 L 14.835938 16.398438 C 14.8125 16.601562 14.800781 16.804688 14.800781 17 C 14.800781 18.367188 15.289062 19.691406 16.179688 20.738281 C 15.503906 21.316406 14.859375 22.011719 14.273438 22.820312 C 14.234375 22.871094 14.210938 22.925781 14.195312 22.984375 C 13.484375 23.125 12.75 23.199219 12 23.199219 C 11.25 23.199219 10.519531 23.125 9.808594 22.984375 Z M 9.808594 22.984375"/>
</svg>

<svg xmlns="http://www.w3.org/2000/svg" width="32" height="32" viewBox="0 0 24 24">
    <path d="M10 8.797c.707 0 1.418-.227 2-.672a3.299 3.299 0 0 0 2 .672c.824 0 1.648-.305 2.277-.91a.396.396 0 0 0 .012-.563.401.401 0 0 0-.566-.011 2.5 2.5 0 0 1-3.446 0c-.02-.02-.043-.028-.062-.04-.024-.015-.043-.03-.063-.043a.606.606 0 0 0-.082-.015c-.023-.004-.047-.012-.07-.012-.023 0-.047.008-.07.012a.606.606 0 0 0-.082.015c-.02.012-.04.028-.063.043-.02.012-.043.02-.062.04a2.5 2.5 0 0 1-3.446 0 .401.401 0 0 0-.566.011.396.396 0 0 0 .012.563c.629.605 1.453.91 2.277.91zm0 0M14.477 11.363c-.297.41-.68.637-1.079.637-.394 0-.777-.227-1.074-.637-.011-.015-.031-.023-.047-.039-.011-.015-.023-.035-.043-.047-.004-.004-.011-.004-.015-.007-.024-.016-.047-.024-.074-.036-.024-.007-.043-.02-.067-.023-.027-.008-.055-.004-.078-.004-.027 0-.05 0-.074.004-.024.004-.047.016-.07.023-.028.012-.051.02-.075.036-.004.003-.011.003-.015.007-.02.012-.028.032-.043.047-.016.016-.036.024-.047.04-.297.41-.68.636-1.074.636-.399 0-.782-.227-1.079-.637a.4.4 0 0 0-.558-.086.4.4 0 0 0-.09.559c.453.621 1.066.965 1.727.965.511 0 .996-.211 1.398-.598.402.387.887.598 1.398.598.66 0 1.274-.344 1.727-.965a.4.4 0 0 0-.09-.559.403.403 0 0 0-.558.086zm0 0"/>
    <path d="M24 12c0-2.836-.988-5.441-2.64-7.496l.003-.012-.12-.144A11.954 11.954 0 0 0 16.702.96l-.05-.023c-.141-.06-.286-.114-.43-.168-.055-.02-.11-.043-.164-.063-.122-.043-.25-.086-.375-.125-.079-.027-.157-.05-.235-.074-.11-.035-.222-.067-.336-.098a31.952 31.952 0 0 0-.593-.14 4.643 4.643 0 0 0-.336-.067c-.09-.016-.184-.035-.274-.05-.129-.02-.254-.036-.379-.051-.086-.012-.168-.024-.25-.032-.14-.015-.289-.027-.433-.039C12.78.027 12.71.02 12.645.02 12.43.008 12.215 0 12 0c-.215 0-.43.008-.645.02-.066 0-.136.007-.203.011-.144.012-.293.024-.433.04-.082.007-.164.019-.25.03-.125.016-.25.032-.38.051-.089.016-.183.036-.273.051-.113.02-.226.04-.336.067a31.952 31.952 0 0 0-.594.14c-.113.031-.226.063-.335.098-.078.023-.156.047-.235.074-.125.04-.254.082-.375.125-.054.02-.109.043-.164.063-.144.054-.289.109-.43.167-.015.008-.03.016-.05.024a11.954 11.954 0 0 0-4.54 3.387l-.058.078A11.934 11.934 0 0 0 0 12a11.95 11.95 0 0 0 3.2 8.148v.008l.112.117c.036.036.075.07.114.11.117.12.238.238.36.355a19.218 19.218 0 0 0 .671.586c.09.074.18.145.273.215.11.086.223.168.336.246.141.098.278.195.422.285.121.082.246.16.371.235l.305.175a18.146 18.146 0 0 0 .695.36c.184.09.371.172.563.25l.266.105c.164.063.335.125.503.18l.2.07c.234.075.468.14.71.2.02.003.04.011.063.015.008.004.02.004.027.004a11.89 11.89 0 0 0 5.621 0c.008 0 .016 0 .028-.004.02-.004.039-.012.058-.015.243-.06.48-.125.715-.2l.196-.07a11.16 11.16 0 0 0 1.336-.535c.105-.05.21-.106.316-.16.125-.063.25-.13.371-.2.105-.054.211-.117.313-.175l.359-.227c.148-.098.297-.2.441-.3.106-.079.215-.153.32-.235.094-.074.192-.148.286-.223.117-.097.23-.195.344-.293.117-.101.226-.203.34-.308.113-.11.226-.219.335-.328.04-.043.082-.078.121-.121l.11-.118v-.007A11.947 11.947 0 0 0 24 12zm-4.066 7.898c-.067.067-.137.13-.204.196-.152.144-.308.285-.472.426-.055.046-.113.097-.172.144-.098.082-.195.16-.297.234-.059.047-.117.09-.172.133-.105.074-.21.153-.32.223l-.152.105c-.368.239-.747.457-1.137.657-.07.035-.14.07-.215.105a24.42 24.42 0 0 1-.313.14c-.085.04-.175.075-.261.11-.098.04-.196.082-.293.117-.114.043-.227.082-.34.121-.063.02-.125.043-.188.063 1.38-1.668 3.012-2.73 4.602-2.992v.144c-.023.028-.043.051-.066.074zM10.8 15.602V14.8h2.398v.8zM8.398 17c0 1.09-.359 2.145-1.015 3.012A8.57 8.57 0 0 0 4 18.867v-2.469h4.363c.024.207.035.407.035.602zm-.007 5.602a15.724 15.724 0 0 1-.313-.114c-.101-.035-.203-.078-.305-.117-.082-.035-.164-.07-.25-.105a11.723 11.723 0 0 1-.32-.149L7 22.02c-.395-.2-.773-.418-1.14-.66-.055-.036-.106-.067-.157-.106-.11-.07-.21-.145-.316-.223-.059-.043-.117-.09-.176-.133a5.863 5.863 0 0 1-.293-.23c-.063-.05-.125-.105-.188-.156a13.964 13.964 0 0 1-.433-.39 6.304 6.304 0 0 1-.23-.227c-.024-.02-.044-.043-.067-.067v-.148c2.059.332 3.691 1.898 4.598 2.992a12.69 12.69 0 0 0-.207-.07zm.644-7v-.004L4 15.594V14.8h6v.8zM3.742 6.199a3.2 3.2 0 0 0 1.86.602.401.401 0 0 0 0-.801 2.395 2.395 0 0 1-2.098-1.23c0-.016-.004-.032-.008-.047a11.304 11.304 0 0 1 3.649-2.817h.007c.145-.07.29-.136.442-.199.027-.016.058-.027.09-.043.128-.05.261-.105.394-.152.05-.02.106-.04.156-.059.118-.043.235-.082.356-.121.07-.023.14-.043.215-.062.105-.036.21-.063.316-.094.09-.024.176-.043.266-.063A7.512 7.512 0 0 1 9.98.988c.086-.015.172-.035.258-.047.117-.02.235-.035.352-.05.074-.008.152-.02.226-.028.133-.015.27-.023.407-.031.058-.004.12-.012.183-.016.196-.011.395-.015.594-.015.2 0 .398.004.594.015l.187.012c.133.012.27.02.403.035.078.008.152.02.226.028.117.015.238.03.352.05.086.012.172.028.258.043.101.02.207.04.308.063.098.02.192.043.29.066.085.02.175.04.26.063.106.031.216.058.321.094.07.02.14.039.211.062.121.04.238.078.356.121.05.02.105.04.156.059.133.047.265.101.394.156.032.012.063.023.09.039.153.063.297.129.446.2h.003c1.403.679 2.641 1.644 3.649 2.816-.004.015-.008.03-.008.047A2.395 2.395 0 0 1 18.398 6a.4.4 0 0 0 0 .8 3.2 3.2 0 0 0 1.86-.6A26.333 26.333 0 0 0 20 9.831V14h-2.953l.91-1.82a.403.403 0 0 0-.18-.54.402.402 0 0 0-.535.18L16.152 14H7.848l-1.09-2.18a.4.4 0 1 0-.715.36l.91 1.82H4V9.832c0-1.21-.09-2.426-.258-3.633zM14 14.801h6v.8l-5.035-.003v.004H14zm1.637 1.597H20v2.47a8.633 8.633 0 0 0-3.383 1.144 4.989 4.989 0 0 1-.98-3.614zm5.164 2.516V9.832c0-1.418.125-2.84.367-4.258A11.15 11.15 0 0 1 23.199 12c0 2.61-.898 5.008-2.398 6.914zM2.836 5.574a25.54 25.54 0 0 1 .363 4.258v9.086A11.152 11.152 0 0 1 .801 12c0-2.39.754-4.605 2.035-6.426zm6.973 17.41a.528.528 0 0 0-.079-.164 11.866 11.866 0 0 0-1.91-2.082A5.777 5.777 0 0 0 9.2 17a5.28 5.28 0 0 0-.036-.602h2.438v2.403a.398.398 0 1 0 .796 0v-2.403h2.438A5.28 5.28 0 0 0 14.8 17c0 1.367.488 2.691 1.379 3.738a12.002 12.002 0 0 0-1.907 2.082.453.453 0 0 0-.078.164 11.308 11.308 0 0 1-4.386 0zm0 0"/>
</svg>
